; HEADER_BLOCK_START
; generated by OrcaSlicer 2.3.1 on 2026-01-05 at 15:10:15
; total layer number: 211
; filament_density: 1.27
; filament_diameter: 1.75
; max_z_height: 16.24
; HEADER_BLOCK_END

; THUMBNAIL_BLOCK_START

;
; THUMBNAIL_BLOCK_END

; THUMBNAIL_BLOCK_START

;
; THUMBNAIL_BLOCK_END

; external perimeters extrusion width = 0.44mm
; perimeters extrusion width = 0.44mm
; infill extrusion width = 0.44mm
; solid infill extrusion width = 0.44mm
; top infill extrusion width = 0.40mm
; support material extrusion width = 0.38mm
; first layer extrusion width = 0.44mm

; external perimeters extrusion width = 0.44mm
; perimeters extrusion width = 0.44mm
; infill extrusion width = 0.44mm
; solid infill extrusion width = 0.44mm
; top infill extrusion width = 0.40mm
; support material extrusion width = 0.38mm
; first layer extrusion width = 0.44mm

; external perimeters extrusion width = 0.44mm
; perimeters extrusion width = 0.44mm
; infill extrusion width = 0.44mm
; solid infill extrusion width = 0.44mm
; top infill extrusion width = 0.40mm
; support material extrusion width = 0.38mm
; first layer extrusion width = 0.44mm

; EXECUTABLE_BLOCK_START
EXCLUDE_OBJECT_DEFINE NAME=GoPro_Shaft.stl_id_0_copy_0 CENTER=84.9995,84.9989 POLYGON=[[75.9995,103.874],[76.0118,103.717],[82.1995,54.5239],[82.5995,54.1253],[90.3995,54.1253],[90.7995,54.5239],[93.9995,96.3739],[93.9995,115.474],[93.5995,115.873],[76.3995,115.873],[75.9995,115.474],[75.9995,103.874]]
EXCLUDE_OBJECT_DEFINE NAME=GoPro_Shaft.stl_id_1_copy_0 CENTER=150.001,84.9989 POLYGON=[[141.001,103.874],[141.013,103.717],[147.201,54.5239],[147.601,54.1253],[155.401,54.1253],[155.801,54.5239],[159.001,96.3739],[159.001,115.474],[158.601,115.872],[141.401,115.872],[141.001,115.474],[141.001,103.874]]
EXCLUDE_OBJECT_DEFINE NAME=Threaded_Ball.stl_id_2_copy_0 CENTER=84.9987,171.874 POLYGON=[[75.9995,171.874],[76.0056,171.543],[76.0238,171.213],[76.0541,170.884],[76.0965,170.556],[76.151,170.23],[76.2173,169.906],[76.2956,169.585],[76.3855,169.266],[76.4871,168.952],[76.6002,168.641],[76.7247,168.335],[76.8603,168.033],[77.0069,167.737],[77.1643,167.446],[77.3322,167.161],[77.5105,166.883],[77.699,166.611],[77.8972,166.346],[78.1051,166.089],[78.3223,165.84],[78.5485,165.598],[78.7833,165.366],[79.0266,165.142],[79.278,164.927],[79.5371,164.721],[79.8035,164.526],[80.077,164.34],[80.3571,164.164],[80.6434,163.999],[80.9357,163.844],[81.2334,163.7],[81.5363,163.567],[81.8438,163.446],[82.1555,163.335],[82.4711,163.237],[82.7901,163.15],[83.1136,163.074],[83.4367,163.011],[83.7633,162.959],[84.0916,162.92],[84.4212,162.893],[84.7515,162.878],[85.0822,162.874],[85.4127,162.884],[85.7427,162.905],[86.0717,162.938],[86.3992,162.984],[86.7249,163.041],[87.0482,163.11],[87.3688,163.192],[87.6861,163.284],[87.9999,163.389],[88.3095,163.505],[88.6148,163.632],[88.9151,163.771],[89.2101,163.92],[89.4995,164.08],[89.7828,164.25],[90.0596,164.431],[90.3296,164.622],[90.5924,164.823],[90.8477,165.033],[91.095,165.253],[91.3342,165.481],[91.5647,165.718],[91.7865,165.963],[91.999,166.217],[92.2021,166.478],[92.3955,166.746],[92.5789,167.021],[92.7521,167.303],[92.9148,167.591],[93.0668,167.884],[93.2079,168.183],[93.3379,168.487],[93.4567,168.796],[93.5641,169.109],[93.6599,169.425],[93.744,169.745],[93.8163,170.068],[93.8767,170.393],[93.9252,170.72],[93.9615,171.049],[93.9858,171.378],[93.998,171.709],[93.998,172.039],[93.9858,172.37],[93.9615,172.7],[93.9252,173.028],[93.8767,173.355],[93.8163,173.681],[93.744,174.003],[93.6599,174.323],[93.5641,174.64],[93.4567,174.952],[93.3379,175.261],[93.2079,175.565],[93.0668,175.864],[92.9148,176.158],[92.7521,176.446],[92.5789,176.727],[92.3955,177.002],[92.2021,177.271],[91.999,177.532],[91.7865,177.785],[91.5647,178.03],[91.3342,178.267],[91.095,178.496],[90.8477,178.715],[90.5924,178.925],[90.3296,179.126],[90.0596,179.317],[89.7828,179.498],[89.4995,179.668],[89.2101,179.828],[88.9151,179.978],[88.6148,180.116],[88.3095,180.243],[87.9999,180.359],[87.6861,180.464],[87.3688,180.557],[87.0482,180.638],[86.7249,180.707],[86.3992,180.765],[86.0717,180.81],[85.7427,180.843],[85.4127,180.865],[85.0822,180.874],[84.7515,180.871],[84.4212,180.856],[84.0916,180.828],[83.7633,180.789],[83.4367,180.737],[83.1136,180.674],[82.7901,180.599],[82.4711,180.512],[82.1555,180.413],[81.8438,180.303],[81.5363,180.181],[81.2334,180.048],[80.9357,179.904],[80.6434,179.75],[80.3571,179.584],[80.077,179.409],[79.8035,179.223],[79.5371,179.027],[79.278,178.821],[79.0266,178.606],[78.7833,178.383],[78.5485,178.15],[78.3223,177.909],[78.1051,177.659],[77.8972,177.402],[77.699,177.137],[77.5105,176.866],[77.3322,176.587],[77.1643,176.302],[77.0069,176.012],[76.8603,175.715],[76.7247,175.414],[76.6002,175.107],[76.4871,174.796],[76.3855,174.482],[76.2956,174.164],[76.2173,173.842],[76.151,173.518],[76.0965,173.192],[76.0541,172.864],[76.0238,172.535],[76.0056,172.205],[75.9995,171.874]]
M73 P0 R46
;TYPE:Custom
start_print BED_TEMP=80 EXTRUDER_TEMP=235
G90
G21
M83 ; use relative distances for extrusion
; filament start gcode
SET_PRESSURE_ADVANCE ADVANCE=0.08; Override pressure advance value
M106 S0
;LAYER_CHANGE
;Z:0.24
;HEIGHT:0.24
;BEFORE_LAYER_CHANGE
;0.24
G92 E0

;_SET_FAN_SPEED_CHANGING_LAYER
; printing object GoPro_Shaft.stl id:0 copy 0
G1 E-.55 F1500
SET_SERVO SERVO=camera_servo ANGLE=90.00
EXCLUDE_OBJECT_START NAME=GoPro_Shaft.stl_id_0_copy_0
G1 X80.427 Y102.146 F9000
G1 Z.24
G1 Z.24
G1 E.55 F1500
;TYPE:Inner wall
;WIDTH:0.603066
G1 F2400
G1 X80.447 Y102.276 E.00661
;WIDTH:0.5623
G1 X80.468 Y102.406 E.00612
;WIDTH:0.521533
G1 X80.488 Y102.537 E.00563
;WIDTH:0.480766
G1 X80.508 Y102.667 E.00514
;WIDTH:0.439999
G1 X80.508 Y111.198 E.30093
G1 X77.342 Y111.198 E.1117
G1 X77.342 Y104.325 E.24243
G1 X78.18 Y104.311 E.02957
G1 X78.799 Y104.17 E.0224
G1 X79.081 Y104.039 E.01096
G1 X79.516 Y103.743 E.01856
G1 X79.736 Y103.537 E.01061
G1 X80.042 Y103.114 E.01841
G1 X80.238 Y102.641 E.01806
;WIDTH:0.482585
G1 X80.285 Y102.517 E.00519
;WIDTH:0.52517
G1 X80.333 Y102.393 E.0057
;WIDTH:0.567755
G1 X80.38 Y102.27 E.00622
;WIDTH:0.61034
G1 X80.413 Y102.183 E.0047
G1 E-.385 F1500
;WIPE_START
G1 F2400
G1 X80.447 Y102.276 E-.01638
G1 X80.468 Y102.406 E-.02178
G1 X80.488 Y102.537 E-.02178
G1 X80.508 Y102.667 E-.02178
G1 X80.508 Y103.172 E-.08329
;WIPE_END
G1 X80.567 Y98.751 F9000
G1 E.55 F1500
;WIDTH:0.555841
G1 F2400
G1 X80.51 Y98.865 E.00584
;WIDTH:0.594454
G1 X80.431 Y99.024 E.00876
G1 X80.412 Y98.828 E.0097
;WIDTH:0.555841
G1 X80.393 Y98.633 E.00901
;WIDTH:0.517227
G1 X80.373 Y98.437 E.00832
;WIDTH:0.478613
G1 X80.354 Y98.241 E.00763
;WIDTH:0.439999
G1 X80.354 Y96.8 E.05083
G1 X81.309 Y96.787 E.03368
G1 X81.819 Y96.705 E.01824
G1 X82.293 Y96.509 E.0181
G1 X82.728 Y96.213 E.01855
G1 X82.957 Y95.996 E.01114
G1 X83.19 Y95.688 E.01361
G1 X83.336 Y95.412 E.011
G1 X83.503 Y94.915 E.0185
G1 X83.567 Y94.416 E.01776
G1 X83.567 Y70.02 E.86058
G1 X83.859 Y70.495 E.01969
G1 X84.442 Y70.69 E.02167
G1 X88.57 Y70.69 E.14562
G1 X89.152 Y70.495 E.02167
G1 X89.444 Y70.02 E.01969
G1 X89.444 Y94.416 E.86058
G1 X89.506 Y94.928 E.01818
G1 X89.598 Y95.225 E.01099
G1 X89.832 Y95.696 E.01853
G1 X90.015 Y95.951 E.01108
G1 X90.288 Y96.224 E.01361
G1 X90.543 Y96.407 E.01108
G1 X91.245 Y96.721 E.02715
G1 X91.626 Y96.781 E.01358
G1 X92.648 Y96.791 E.03607
G1 X92.649 Y98.237 E.05103
;WIDTH:0.488983
G1 X92.625 Y98.499 E.01046
;WIDTH:0.537967
G1 X92.6 Y98.762 E.01163
;WIDTH:0.58695
G1 X92.576 Y99.024 E.0128
G1 X92.471 Y98.81 E.01156
;WIDTH:0.537967
G1 X92.366 Y98.597 E.0105
;WIDTH:0.488983
G1 X92.261 Y98.383 E.00945
;WIDTH:0.439999
G1 X91.799 Y98.091 E.0193
G1 X91.531 Y98.053 E.00954
G1 X87.554 Y98.053 E.1403
G1 X87.251 Y98.102 E.01084
G1 X86.937 Y98.274 E.01262
G1 X86.724 Y98.52 E.01147
;WIDTH:0.478613
G1 X86.67 Y98.646 E.00533
;WIDTH:0.517226
G1 X86.615 Y98.772 E.00582
;WIDTH:0.555839
G1 X86.56 Y98.898 E.0063
;WIDTH:0.594452
G1 X86.506 Y99.024 E.00678
G1 X86.451 Y98.898 E.00678
;WIDTH:0.555839
G1 X86.396 Y98.772 E.0063
;WIDTH:0.517226
G1 X86.342 Y98.646 E.00582
M73 P0 R45
;WIDTH:0.478613
G1 X86.287 Y98.52 E.00533
;WIDTH:0.439999
G1 X86.074 Y98.274 E.01147
G1 X85.826 Y98.126 E.01017
G1 X85.457 Y98.053 E.01328
G1 X81.713 Y98.053 E.13207
G1 X81.204 Y98.093 E.01801
G1 X80.746 Y98.388 E.01921
;WIDTH:0.478613
G1 X80.668 Y98.547 E.00689
;WIDTH:0.517227
G1 X80.589 Y98.706 E.00751
;WIDTH:0.555841
G1 X80.584 Y98.715 E.00046
G1 X81.443 Y98.449 F9000
G92 E0

EXCLUDE_OBJECT_END NAME=GoPro_Shaft.stl_id_0_copy_0
;_SET_FAN_SPEED_CHANGING_LAYER
M104 S230 ; set nozzle temperature
M140 S75 ; set bed temperature
; printing object GoPro_Shaft.stl id:0 copy 0
G1 E-.385 F1500
;WIPE_START
G1 F3000
G1 X80.813 Y98.008 E-.0798
G1 X81.114 Y97.814 E-.05922
G1 X81.161 Y97.807 E-.00785
G1 X81.084 Y97.729 E-.01813
;WIPE_END
SET_SERVO SERVO=camera_servo ANGLE=90.00
EXCLUDE_OBJECT_START NAME=GoPro_Shaft.stl_id_0_copy_0
G1 X92.946 Y96.493 Z.44 F9000
G1 E.55 F1500
;TYPE:Inner wall
;WIDTH:0.439999
G1 F7200
G1 X92.95 Y98.418 E.05785
;WIDTH:0.484185
G1 X92.928 Y98.651 E.0078
;WIDTH:0.528371
G1 X92.906 Y98.883 E.00858
;WIDTH:0.572557
G1 X92.884 Y99.116 E.00936
;WIDTH:0.616743
G1 X92.862 Y99.348 E.01014
;WIDTH:0.621174
G1 X92.869 Y111.41 E.52776
G1 X92.29 Y111.41 E.02531
G1 X92.288 Y99.348 E.52779
;WIDTH:0.616743
G1 X92.215 Y99.197 E.0073
;WIDTH:0.572557
G1 X92.141 Y99.046 E.00673
;WIDTH:0.528371
G1 X92.068 Y98.895 E.00617
;WIDTH:0.484185
G1 X91.994 Y98.743 E.00561
;WIDTH:0.439999
G1 X91.572 Y98.425 E.01588
G1 X91.213 Y98.356 E.01097
G1 X87.878 Y98.356 E.1002
G1 X87.506 Y98.428 E.01138
G1 X87.173 Y98.65 E.01204
G1 X86.989 Y98.908 E.00953
;WIDTH:0.485379
G1 X86.94 Y99.018 E.00403
;WIDTH:0.530759
G1 X86.892 Y99.128 E.00444
;WIDTH:0.576139
G1 X86.843 Y99.238 E.00485
;WIDTH:0.621519
G1 X86.795 Y99.349 E.00527
G1 X86.795 Y111.41 E.52806
G1 X86.216 Y111.41 E.02533
G1 X86.216 Y99.349 E.52806
G1 X86.168 Y99.238 E.00527
;WIDTH:0.576139
G1 X86.119 Y99.128 E.00485
;WIDTH:0.530759
G1 X86.071 Y99.018 E.00444
;WIDTH:0.485379
G1 X86.022 Y98.908 E.00403
;WIDTH:0.439999
G1 X85.838 Y98.65 E.00953
G1 X85.505 Y98.428 E.01204
G1 X85.133 Y98.356 E.01138
G1 X81.804 Y98.356 E.10002
G1 X81.432 Y98.428 E.01137
G1 X81.014 Y98.747 E.01581
;WIDTH:0.48538
G1 X80.941 Y98.898 E.0056
;WIDTH:0.53076
G1 X80.867 Y99.048 E.00618
;WIDTH:0.57614
G1 X80.794 Y99.198 E.00675
;WIDTH:0.62152
G1 X80.721 Y99.349 E.00732
G1 X80.721 Y102.126 E.12159
G1 X80.743 Y102.227 E.00452
;WIDTH:0.57614
G1 X80.766 Y102.327 E.00417
;WIDTH:0.53076
G1 X80.789 Y102.428 E.00381
;WIDTH:0.48538
G1 X80.811 Y102.529 E.00346
;WIDTH:0.439999
G1 X80.811 Y111.501 E.26957
G1 X77.039 Y111.501 E.11334
G1 X77.039 Y104.021 E.22474
G1 X78.146 Y104.009 E.03325
G1 X78.747 Y103.864 E.0186
G1 X79.025 Y103.726 E.00933
G1 X79.316 Y103.519 E.01073
G1 X79.629 Y103.194 E.01354
G1 X79.884 Y102.744 E.01555
;WIDTH:0.480402
G1 X79.942 Y102.588 E.00551
;WIDTH:0.520804
G1 X80.001 Y102.432 E.00601
;WIDTH:0.561206
G1 X80.059 Y102.277 E.00652
;WIDTH:0.601608
G1 X80.117 Y102.121 E.00703
;WIDTH:0.62152
G1 X80.142 Y101.942 E.00788
G1 X80.142 Y99.349 E.11356
G1 X80.119 Y99.117 E.01019
;WIDTH:0.57614
G1 X80.097 Y98.885 E.00939
;WIDTH:0.53076
G1 X80.074 Y98.654 E.00859
;WIDTH:0.48538
G1 X80.051 Y98.422 E.00779
;WIDTH:0.439999
G1 X80.051 Y96.501 E.05773
G1 X81.337 Y96.482 E.03865
G1 X81.898 Y96.352 E.01728
G1 X82.238 Y96.196 E.01125
G1 X82.529 Y95.989 E.01073
G1 X82.761 Y95.756 E.00988
G1 X83.076 Y95.271 E.01737
G1 X83.206 Y94.874 E.01255
G1 X83.264 Y94.412 E.01398
G1 X83.264 Y70.226 E.72671
;WIDTH:0.468008
G1 X83.278 Y69.81 E.01338
;WIDTH:0.496017
G1 X83.292 Y69.394 E.01426
G1 X83.292 Y58.525 E.37265
G1 X83.745 Y58.525 E.01553
G1 X83.745 Y69.551 E.37801
G1 X83.858 Y69.77 E.00847
;WIDTH:0.468008
G1 X83.972 Y69.99 E.00795
;WIDTH:0.439999
G1 X84.384 Y70.311 E.0157
G1 X84.766 Y70.387 E.0117
G1 X88.245 Y70.387 E.10454
G1 X88.627 Y70.311 E.0117
G1 X89.039 Y69.99 E.0157
;WIDTH:0.472733
G1 X89.147 Y69.781 E.00766
;WIDTH:0.505466
G1 X89.255 Y69.571 E.00824
G1 X89.266 Y69.394 E.00621
;WIDTH:0.496016
G1 X89.266 Y58.525 E.37264
G1 X89.719 Y58.525 E.01553
G1 X89.719 Y69.7 E.38313
G1 X89.733 Y69.963 E.00902
;WIDTH:0.468008
G1 X89.747 Y70.226 E.00847
;WIDTH:0.439999
G1 X89.747 Y94.481 E.72876
G1 X89.836 Y95.011 E.01615
G1 X90.065 Y95.503 E.01631
G1 X90.249 Y95.757 E.00942
G1 X90.481 Y95.99 E.00988
G1 X90.735 Y96.173 E.00942
G1 X91.054 Y96.335 E.01073
G1 X91.438 Y96.453 E.01208
G1 X91.951 Y96.482 E.01543
G1 X92.906 Y96.492 E.0287
G1 X93.131 Y96.118 F9000
G1 F7200
G1 X93.301 Y96.276 E.00698
G1 X93.345 Y96.397 E.00388
G1 X93.357 Y111.81 E.4631
G1 X93.315 Y111.898 E.00292
G1 X91.845 Y111.898 E.04415
G1 X91.803 Y111.838 E.0022
G1 X91.803 Y99.349 E.37525
G1 X91.679 Y98.985 E.01152
G1 X91.426 Y98.795 E.00953
G1 X91.211 Y98.753 E.00658
G1 X88.311 Y98.753 E.08714
G1 X87.781 Y98.761 E.01593
G1 X87.546 Y98.854 E.0076
G1 X87.345 Y99.084 E.00918
G1 X87.283 Y99.349 E.00816
G1 X87.283 Y111.81 E.37442
G1 X87.24 Y111.898 E.00293
G1 X85.771 Y111.898 E.04415
G1 X85.728 Y111.838 E.0022
G1 X85.728 Y99.349 E.37525
G1 X85.667 Y99.084 E.00816
G1 X85.556 Y98.929 E.00572
G1 X85.401 Y98.817 E.00575
G1 X85.133 Y98.753 E.00829
G1 X81.663 Y98.77 E.10426
G1 X81.33 Y98.988 E.01195
G1 X81.208 Y99.349 E.01144
G1 X81.208 Y111.81 E.37442
G1 X81.166 Y111.898 E.00293
G1 X76.684 Y111.898 E.13465
G1 X76.642 Y111.838 E.0022
G1 X76.642 Y104.031 E.23456
G1 X76.703 Y103.809 E.00692
G1 X76.827 Y103.683 E.00533
G1 X77.02 Y103.624 E.00604
G1 X78.141 Y103.612 E.0337
G1 X78.628 Y103.486 E.01511
G1 X79.086 Y103.195 E.01628
G1 X79.395 Y102.831 E.01436
G1 X79.586 Y102.397 E.01423
G1 X79.654 Y101.942 E.01382
G1 X79.659 Y96.438 E.1654
G1 X79.758 Y96.205 E.00758
G1 X79.919 Y96.105 E.0057
G1 X81.288 Y96.088 E.04114
G1 X81.804 Y95.966 E.01591
G1 X82.008 Y95.872 E.00675
G1 X82.299 Y95.665 E.01073
G1 X82.645 Y95.235 E.0166
G1 X82.827 Y94.755 E.01543
G1 X82.867 Y94.412 E.01036
G1 X82.867 Y58.243 E1.08674
G1 X82.931 Y58.1 E.00471
G1 X84.106 Y58.1 E.03532
G1 X84.17 Y58.202 E.00361
G1 X84.17 Y69.394 E.33628
G1 X84.289 Y69.752 E.01132
G1 X84.537 Y69.944 E.00942
G1 X84.766 Y69.99 E.00702
G1 X88.245 Y69.99 E.10454
G1 X88.474 Y69.944 E.00702
G1 X88.722 Y69.752 E.00942
G1 X88.841 Y69.394 E.01132
G1 X88.841 Y58.243 E.33505
G1 X88.905 Y58.1 E.00471
G1 X90.08 Y58.1 E.03532
G1 X90.144 Y58.202 E.00361
G1 X90.144 Y94.412 E1.08797
G1 X90.201 Y94.827 E.01258
G1 X90.419 Y95.324 E.0163
G1 X90.762 Y95.709 E.01549
G1 X91.233 Y95.98 E.01633
G1 X91.516 Y96.064 E.00887
G1 X93.091 Y96.117 E.04734
G1 X93.234 Y95.75 Z.24 F9000
;TYPE:Outer wall
G1 F3600
G1 X93.451 Y95.837 Z.243 E.00009
G1 X93.679 Y96.109 Z.246 E.00034
G1 X93.742 Y96.397 Z.25 E.00043
G1 F3720
G1 X93.744 Y98.343 Z.269 E.00851
G1 X93.745 Y100.289 Z.289 E.01419
G1 X93.747 Y102.235 Z.308 E.01988
G1 X93.748 Y104.181 Z.327 E.02557
G1 X93.75 Y106.127 Z.347 E.03126
G1 X93.751 Y108.072 Z.366 E.03693
G1 F3600
G1 X93.753 Y110.018 Z.386 E.04264
G1 X93.754 Y111.964 Z.405 E.04833
G1 X93.52 Y112.295 Z.409 E.01031
G1 X91.639 Y112.295 Z.428 E.05317
G1 X91.406 Y111.964 Z.432 E.01169
G1 X91.406 Y111.186 Z.44 E.02337
G1 X91.406 Y99.349 E.35565
G1 F3180
G1 X91.364 Y99.228 E.00385
G1 X91.208 Y99.15 E.00524
G1 F3600
G1 X87.878 Y99.15 E.10005
G1 F3000
G1 X87.737 Y99.209 E.00459
G1 X87.68 Y99.349 E.00454
G1 F3600
G1 X87.68 Y111.964 E.37903
G1 X87.446 Y112.295 E.01218
G1 X85.565 Y112.295 E.05652
G1 X85.331 Y111.964 E.01218
G1 X85.331 Y99.349 E.37903
G1 F3000
G1 X85.274 Y99.209 E.00454
G1 X85.133 Y99.15 E.00459
G1 F3600
G1 X81.804 Y99.15 E.10002
G1 F3180
G1 X81.646 Y99.228 E.00529
G1 X81.605 Y99.349 E.00384
G1 F3600
G1 X81.605 Y111.964 E.37903
G1 X81.372 Y112.295 E.01216
G1 X76.479 Y112.295 E.14701
G1 X76.245 Y111.964 E.01218
G1 X76.245 Y104.036 E.2382
M106 S0
G1 X76.283 Y103.733 E.00918
G1 X76.465 Y103.439 E.01039
G1 X76.749 Y103.265 E.01001
G1 X76.986 Y103.227 E.00721
G1 X78.137 Y103.215 E.03458
G1 X78.509 Y103.107 E.01164
G1 X78.855 Y102.872 E.01257
G1 X79.017 Y102.688 E.00737
G1 X79.176 Y102.384 E.01031
G1 X79.257 Y101.942 E.0135
G1 X79.257 Y96.5 E.16351
M106 S0
